X:6
T:Mairi's Wedding
C:Trad, Sc.  
M:4/4
L:1/8
Q:1/2=116
K:G 
 E2 |: D3D D2 E2 | G2 A2 B4 |  A2 G2 E2 G2 | B2 A2 Bd3 | 
  D3D D2 E2 | G2 A2 B4 |  A2 G2 E2 C2 | D4 D4 :| 
 |: d3e d2 e2 | d2 c2 B4 |  A2 G2 E2 G2 | B2 A2 Bd3 |
  d3e d2 e2 | d2 c2 B4 |  A2 G2 E2 C2 | D4 D4 :|
%%%%  An old standby, from memory.
%%%%  It's important to get those Scots snaps (bars 4 and 12).
%%%%  From Cathie:  very important to start with a pickup note.
%%%%  See Chorus.abc for notes on construction
